X:1
T:A Monkey on the Pony  "Composed by William Garrett"
M:C|
L:1/8
Q:80
C:
S:Hornpipe
K:HP
|: f|
{gBeBG}B{g}d/2B/2{g}f{g}e/2d/2|
{g}B/2{G}B/2{g}d/2B/2{g}e/2d/2{g}c/2{d}A/2|
{gBeBG}B{g}d/2B/2{g}f{g}e/2d/2|  !
a/2f/2{g}e/2f/2{g}e/2d/2{g}c/2{d}A/2{gBeBG}B{g}d/2B/2{g}f{g}e/2d/2|
{g}B/2{G}B/2{g}d/2B/2{g}e/2d/2{g}c/2{d}A/2|
{g}Bf{gef}e/2d/2{g}c/2{d}A/2|  !
{g}B/2{G}B/2d/2A/2{g}B:| |:
{ag}ae/2f/2{g}B/2f/2{g}e/2d/2|
{g}B/2f/2{e}f/2B/2a/2f/2{g}e/2f/2|  !
{ag}ae/2f/2{g}B/2f/2{g}e/2d/2|
{g}c/2{d}A/2c/2d/2{g}e/2d/2{g}c/2{d}A/2{ag}ae/2f/2{g}B/2f/2{g}e/2d/2|
{g}B/2f/2{e}f/2B/2a/2f/2{g}e/2f/2|1  !
{g}B/2f/2{e}f/2B/2{g}B/2a/2{g}a/2f/2|
{g}e/2d/2{g}c/2{d}A/2{g}B2:|

